lg/verdaccio.svg

<svg viewBox="0 0 512 96" version="1.1" xmlns="http://www.w3.org/2000/svg" preserveAspectRatio="xMidYMid" height="1em" width="1em">
  <g>
    <path d="M183.514656,73.1617154 L217.038928,11.8194297 L212.129867,11.8194297 L188.130012,56.630347 C186.088067,60.4345198 184.353811,63.8890443 182.927247,66.9939206 L182.927247,66.9939206 L182.759415,66.9939206 C182.507669,62.8540855 182.018161,57.7492214 181.290893,51.6793281 L181.290893,51.6793281 L176.381832,11.8194297 L172.186053,11.8194297 L179.82237,73.1617154 L183.514656,73.1617154 Z M228.703193,74.0008712 C233.150719,74.0008712 237.332511,73.0358421 241.248572,71.1057838 L241.248572,71.1057838 L241.248572,67.1617518 C237.220624,69.2036974 233.360508,70.2246703 229.668222,70.2246703 C225.780134,70.2246703 222.801131,69.0148874 220.731213,66.5953216 C218.661296,64.1757559 217.626337,60.6582947 217.626337,56.042938 C217.626337,54.5324576 217.710253,53.1618366 217.878084,51.9310748 L217.878084,51.9310748 L219.262691,51.9310748 C228.269629,51.9310748 235.059798,50.6024115 239.633197,47.9450849 C244.206596,45.2877584 246.493295,41.4276419 246.493295,36.3647355 C246.493295,33.4276904 245.542252,31.1060261 243.640166,29.3997427 C241.738079,27.6934594 239.19264,26.8403177 236.003848,26.8403177 C231.808069,26.8403177 227.968932,28.2109388 224.486435,30.9521809 C221.003939,33.693423 218.26969,37.3857084 216.283688,42.0290369 C214.297686,46.6723654 213.304685,51.5254828 213.304685,56.5883892 C213.304685,62.0708735 214.66132,66.3435749 217.37459,69.4064934 C220.087861,72.4694119 223.864062,74.0008712 228.703193,74.0008712 Z M220.521424,48.2387895 L218.465493,48.2387895 C219.864086,42.8402208 222.136799,38.5255616 225.283633,35.2948119 C228.430467,32.0640623 231.836041,30.4486874 235.500355,30.4486874 C237.5423,30.4486874 239.171661,31.0570754 240.388437,32.2738512 C241.605213,33.4906271 242.213601,35.0360722 242.213601,36.9101868 C242.213601,44.4625886 234.982875,48.2387895 220.521424,48.2387895 L220.521424,48.2387895 Z M255.094642,73.1617154 L259.29042,52.9800195 C260.18552,48.8122126 261.584113,44.9381102 263.486199,41.3577123 C265.388286,37.7773144 267.528133,35.092016 269.905741,33.301817 C272.283349,31.5116181 274.78683,30.6165186 277.416185,30.6165186 C279.262327,30.6165186 280.842737,30.8263075 282.157415,31.2458854 L282.157415,31.2458854 L283.038528,27.3438111 C281.528048,26.9522051 279.807779,26.7564021 277.87772,26.7564021 C276.003606,26.7564021 274.276344,27.0780785 272.695934,27.7214312 C271.115524,28.364784 269.626022,29.2668764 268.227429,30.4277085 C266.828836,31.5885407 265.108567,33.4836341 263.066621,36.1129888 L263.066621,36.1129888 L262.814875,36.1129888 L264.03165,27.5536001 L260.675027,27.5536001 L250.982778,73.1617154 L255.094642,73.1617154 Z M295.583907,74.0008712 C302.604843,74.0008712 308.534877,69.889008 313.374009,61.6652816 L313.374009,61.6652816 L313.625756,61.6652816 L311.737655,73.1617154 L315.178194,73.1617154 L329.024264,7.8753976 L324.870443,7.8753976 C321.206129,24.798372 319.206141,34.1829306 318.870479,36.0290732 L318.870479,36.0290732 L318.702648,36.0290732 C317.332027,29.9032362 313.429953,26.8403177 306.996425,26.8403177 C302.576871,26.8403177 298.604868,28.2598895 295.080413,31.0990331 C291.555959,33.9381768 288.793738,37.8332581 286.79375,42.7842771 C284.793768,47.735296 283.793768,52.9100898 283.793768,58.3086585 C283.793768,68.7701336 287.723815,74.0008712 295.583907,74.0008712 Z M296.548936,70.2246703 C290.926592,70.2246703 288.115421,66.0988211 288.115421,57.8471229 C288.115421,53.1478506 289.01052,48.5674588 290.800719,44.1059474 C292.590918,39.6444359 294.88461,36.2528481 297.681796,33.9311838 C300.478982,31.6095196 303.61183,30.4486874 307.080341,30.4486874 C310.07333,30.4486874 312.429959,31.5046251 314.150228,33.6165004 C315.870497,35.7283757 316.730632,38.5465405 316.730632,42.0709947 C316.730632,44.4206308 316.227138,47.350683 315.220151,50.8611512 C314.213165,54.3716194 312.723663,57.6023691 310.751647,60.5534002 C308.779631,63.5044313 306.541882,65.8540674 304.038401,67.6023085 C301.53492,69.3505497 299.038431,70.2246703 296.548936,70.2246703 Z M343.12208,74.0008712 C346.870309,74.0008712 350.184975,72.9379405 353.066076,70.8120793 C355.947178,68.6862181 358.562546,65.6372855 360.912182,61.6652816 L360.912182,61.6652816 L361.163929,61.6652816 L359.275829,73.1617154 L362.716367,73.1617154 L372.324701,27.5536001 L368.968078,27.5536001 L366.492568,36.0290732 L366.240821,36.0290732 C364.926144,29.9032362 361.02407,26.8403177 354.534599,26.8403177 C350.282876,26.8403177 346.401781,28.2039458 342.891313,30.931202 C339.380844,33.6584582 336.576665,37.5255676 334.478776,42.5325303 C332.380887,47.539493 331.331942,52.7982024 331.331942,58.3086585 C331.331942,68.7701336 335.261988,74.0008712 343.12208,74.0008712 Z M344.087109,70.2246703 C341.261952,70.2246703 339.150076,69.2246763 337.751484,67.2246884 C336.352891,65.2247006 335.653594,62.0988454 335.653594,57.8471229 C335.653594,53.3156818 336.548694,48.7632618 338.338893,44.1898629 C340.129092,39.6164641 342.422784,36.1829184 345.21997,33.889226 C348.017156,31.5955336 351.150004,30.4486874 354.618514,30.4486874 C356.744375,30.4486874 358.520589,30.9591739 359.947153,31.9801467 C361.373718,33.0011195 362.450635,34.3857265 363.177903,36.1339677 C363.905171,37.8822088 364.268805,39.8612178 364.268805,42.0709947 C364.268805,44.5045464 363.751326,47.4835493 362.716367,51.0080035 C361.681409,54.5324576 360.177921,57.7492214 358.205905,60.6582947 C356.233889,63.5673679 354.010126,65.8890322 351.534617,67.6232874 C349.059107,69.3575427 346.576605,70.2246703 344.087109,70.2246703 Z M394.604286,74.0008712 C398.995868,74.0008712 402.814026,73.2036732 406.058762,71.6092773 L406.058762,71.6092773 L406.058762,67.7491608 C404.07276,68.6722321 402.23361,69.3155849 400.541313,69.679219 C398.849016,70.0428532 397.009866,70.2246703 395.023864,70.2246703 C391.247663,70.2246703 388.331597,69.0288733 386.275665,66.6372794 C384.219734,64.2456855 383.191768,60.8401117 383.191768,56.4205581 C383.191768,51.5254828 384.016938,47.0499855 385.667277,42.994066 C387.317617,38.9381465 389.59033,35.8332702 392.485418,33.6794371 C395.380505,31.525604 398.632234,30.4486874 402.240603,30.4486874 C405.34548,30.4486874 408.394412,31.1060261 411.387401,32.4207035 L411.387401,32.4207035 L412.562219,28.6445026 C409.56923,27.4417126 406.198621,26.8403177 402.450392,26.8403177 C397.835036,26.8403177 393.779116,28.0780724 390.282634,30.5535819 C386.786152,33.0290914 384.009945,36.6234752 381.954013,41.3367334 C379.898081,46.0499915 378.870116,51.105905 378.870116,56.5044737 C378.870116,61.9869579 380.275701,66.2736453 383.086873,69.3645356 C385.898045,72.455426 389.737183,74.0008712 394.604286,74.0008712 Z M431.820844,74.0008712 C436.212426,74.0008712 440.030584,73.2036732 443.27532,71.6092773 L443.27532,71.6092773 L443.27532,67.7491608 C441.289318,68.6722321 439.450168,69.3155849 437.757871,69.679219 C436.065573,70.0428532 434.226424,70.2246703 432.240422,70.2246703 C428.464221,70.2246703 425.548155,69.0288733 423.492223,66.6372794 C421.436291,64.2456855 420.408326,60.8401117 420.408326,56.4205581 C420.408326,51.5254828 421.233495,47.0499855 422.883835,42.994066 C424.534175,38.9381465 426.806888,35.8332702 429.701975,33.6794371 C432.597063,31.525604 435.848791,30.4486874 439.457161,30.4486874 C442.562037,30.4486874 445.61097,31.1060261 448.603959,32.4207035 L448.603959,32.4207035 L449.778777,28.6445026 C446.785788,27.4417126 443.415179,26.8403177 439.66695,26.8403177 C435.051593,26.8403177 430.995674,28.0780724 427.499192,30.5535819 C424.002709,33.0290914 421.226502,36.6234752 419.170571,41.3367334 C417.114639,46.0499915 416.086673,51.105905 416.086673,56.5044737 C416.086673,61.9869579 417.492259,66.2736453 420.303431,69.3645356 C423.114603,72.455426 426.95374,74.0008712 431.820844,74.0008712 Z M466.22623,18.9522536 C467.205245,18.9522536 468.002443,18.4907179 468.617824,17.5676466 C469.233205,16.6445753 469.540895,15.3858416 469.540895,13.7914457 C469.540895,11.7774719 468.743697,10.770485 467.149301,10.770485 C466.08637,10.770485 465.247215,11.2320206 464.631834,12.155092 C464.016453,13.0781633 463.708763,14.3089251 463.708763,15.8473773 C463.708763,16.8263923 463.925544,17.5886255 464.359108,18.1340767 C464.792672,18.679528 465.415046,18.9522536 466.22623,18.9522536 Z M456.324192,73.1617154 L465.932525,27.5536001 L461.904578,27.5536001 L452.212329,73.1617154 L456.324192,73.1617154 Z M488.79952,74.0008712 C493.330961,74.0008712 497.330936,72.7421375 500.799447,70.2246703 C504.267957,67.707203 507.002207,64.0498825 509.002194,59.2527088 C511.002182,54.455535 512.002176,49.3017201 512.002176,43.791264 C512.002176,38.448639 510.624562,34.2598532 507.869334,31.2249065 C505.114106,28.1899599 501.219025,26.6724865 496.18409,26.6724865 C491.792508,26.6724865 487.862462,27.9312202 484.393952,30.4486874 C480.925441,32.9661547 478.170213,36.5605385 476.128268,41.2318389 C474.086322,45.9031393 473.065349,50.910102 473.065349,56.2527269 C473.065349,61.9589861 474.401005,66.3435749 477.072318,69.4064934 C479.74363,72.4694119 483.652698,74.0008712 488.79952,74.0008712 Z M489.219097,70.3925014 C481.331033,70.3925014 477.387001,65.6093136 477.387001,56.042938 C477.387001,51.4555532 478.212171,47.1129222 479.862511,43.0150449 C481.51285,38.9171676 483.722627,35.7703335 486.491841,33.5745426 C489.261055,31.3787517 492.379918,30.2808563 495.848428,30.2808563 C499.680573,30.2808563 502.617618,31.4416884 504.659563,33.7633527 C506.701509,36.0850169 507.722482,39.3996822 507.722482,43.7073484 C507.722482,48.7422829 506.904305,53.3646325 505.267951,57.5743972 C503.631598,61.784162 501.435807,64.9729538 498.680579,67.1407729 C495.925351,69.3085919 492.771524,70.3925014 489.219097,70.3925014 Z" fill="#405236"/>
    <line x1="132.947605" y1="41.9514545" x2="132.947605" y2="55.3211379" stroke="#0F5200" stroke-width="1.6" fill="#000000" opacity="0.101109601" stroke-linecap="square"/>
    <g>
      <polygon fill="#405236" points="96.4680791 34.0475573 65.6631462 95.6574229 47.8287115 95.6574229 0 7.10542736e-15 30.8049328 7.10542736e-15 56.7459289 51.8819921 65.6631462 34.0475573"/>
      <polygon fill="#CD4000" points="56.7459289 22.6983715 56.7459289 17.8344348 73.7697075 17.8324081 76.1996492 12.970498 64.8524901 12.970498 64.8524901 8.10656126 78.6336443 8.10453462 80.2549565 4.86191012 72.9590514 4.86393676 72.9590514 0 113.491858 7.20007277e-15 102.142672 22.6983715"/>
      <polygon fill="#4A5E3F" points="27.7933453 4.86393676 66.6622799 82.8591893 62.6637186 90.7934862 50.8321924 90.7934862 7.86741771 4.86393676"/>
    </g>
  </g>
</svg>

<svg viewBox="0 0 512 96" xmlns="http://www.w3.org/2000/svg" preserveAspectRatio="xMidYMid" height="1em" width="1em">
  <path d="m183.515 73.162 33.524-61.343h-4.91L188.13 56.63c-2.042 3.805-3.776 7.259-5.203 10.364h-.168c-.251-4.14-.74-9.245-1.468-15.315l-4.91-39.86h-4.195l7.636 61.343h3.693Zm45.188.839c4.448 0 8.63-.965 12.546-2.895v-3.944c-4.028 2.042-7.888 3.063-11.58 3.063-3.889 0-6.868-1.21-8.938-3.63-2.07-2.42-3.105-5.937-3.105-10.552 0-1.51.084-2.881.252-4.112h1.385c9.007 0 15.797-1.329 20.37-3.986 4.574-2.657 6.86-6.517 6.86-11.58 0-2.937-.95-5.259-2.853-6.965-1.902-1.707-4.447-2.56-7.636-2.56-4.196 0-8.035 1.37-11.518 4.112-3.482 2.741-6.216 6.434-8.202 11.077a36.648 36.648 0 0 0-2.98 14.56c0 5.482 1.357 9.755 4.07 12.817 2.714 3.063 6.49 4.595 11.33 4.595Zm-8.182-25.762h-2.056c1.4-5.399 3.672-9.713 6.819-12.944 3.146-3.23 6.552-4.846 10.216-4.846 2.042 0 3.672.608 4.888 1.825 1.217 1.217 1.826 2.762 1.826 4.636 0 7.553-7.231 11.329-21.693 11.329Zm34.574 24.923 4.195-20.182c.896-4.168 2.294-8.042 4.196-11.622 1.902-3.58 4.042-6.266 6.42-8.056 2.377-1.79 4.88-2.685 7.51-2.685 1.846 0 3.427.21 4.741.629l.882-3.902c-1.511-.392-3.231-.588-5.161-.588-1.874 0-3.602.322-5.182.965-1.58.644-3.07 1.546-4.469 2.707-1.398 1.16-3.118 3.056-5.16 5.685h-.252l1.217-8.56h-3.357l-9.692 45.609h4.112Zm40.489.839c7.02 0 12.95-4.112 17.79-12.336h.252l-1.888 11.497h3.44l13.846-65.287h-4.154c-3.664 16.923-5.664 26.308-6 28.154h-.167c-1.371-6.126-5.273-9.189-11.707-9.189-4.42 0-8.391 1.42-11.916 4.259-3.524 2.84-6.286 6.734-8.286 11.685-2 4.951-3 10.126-3 15.525 0 10.461 3.93 15.692 11.79 15.692Zm.965-3.776c-5.622 0-8.434-4.126-8.434-12.378 0-4.7.896-9.28 2.686-13.741 1.79-4.462 4.084-7.853 6.88-10.175 2.798-2.321 5.93-3.482 9.4-3.482 2.992 0 5.349 1.056 7.07 3.168 1.72 2.111 2.58 4.93 2.58 8.454 0 2.35-.504 5.28-1.51 8.79-1.008 3.51-2.497 6.741-4.47 9.692-1.971 2.951-4.21 5.301-6.713 7.05-2.503 1.748-5 2.622-7.49 2.622ZM343.122 74c3.748 0 7.063-1.063 9.944-3.189 2.881-2.126 5.497-5.175 7.846-9.147h.252l-1.888 11.497h3.44l9.609-45.608h-3.357l-2.475 8.475h-.252c-1.315-6.126-5.217-9.189-11.706-9.189-4.252 0-8.133 1.364-11.644 4.091-3.51 2.727-6.314 6.595-8.412 11.602-2.098 5.006-3.147 10.265-3.147 15.776 0 10.461 3.93 15.692 11.79 15.692Zm.965-3.776c-2.825 0-4.937-1-6.336-3-1.398-2-2.097-5.126-2.097-9.378 0-4.531.895-9.084 2.685-13.657 1.79-4.574 4.084-8.007 6.881-10.3 2.797-2.294 5.93-3.441 9.399-3.441 2.125 0 3.902.51 5.328 1.531 1.427 1.021 2.504 2.406 3.23 4.154.728 1.748 1.092 3.727 1.092 5.937 0 2.434-.518 5.413-1.553 8.937-1.035 3.524-2.538 6.741-4.51 9.65-1.972 2.91-4.196 5.231-6.671 6.965-2.476 1.735-4.958 2.602-7.448 2.602ZM394.604 74c4.392 0 8.21-.797 11.455-2.392v-3.86c-1.986.923-3.825 1.567-5.518 1.93-1.692.364-3.531.546-5.517.546-3.776 0-6.692-1.196-8.748-3.588-2.056-2.391-3.084-5.797-3.084-10.216 0-4.896.825-9.371 2.475-13.427 1.65-4.056 3.923-7.16 6.818-9.315 2.896-2.153 6.147-3.23 9.756-3.23 3.104 0 6.153.657 9.146 1.972l1.175-3.776c-2.993-1.203-6.363-1.805-10.112-1.805-4.615 0-8.67 1.238-12.167 3.714-3.497 2.475-6.273 6.07-8.329 10.783-2.056 4.713-3.084 9.769-3.084 15.167 0 5.483 1.406 9.77 4.217 12.86 2.811 3.091 6.65 4.637 11.517 4.637Zm37.217 0c4.391 0 8.21-.797 11.454-2.392v-3.86c-1.986.923-3.825 1.567-5.517 1.93-1.692.364-3.532.546-5.518.546-3.776 0-6.692-1.196-8.748-3.588-2.056-2.391-3.084-5.797-3.084-10.216 0-4.896.825-9.371 2.476-13.427 1.65-4.056 3.923-7.16 6.818-9.315 2.895-2.153 6.147-3.23 9.755-3.23 3.105 0 6.154.657 9.147 1.972l1.175-3.776c-2.993-1.203-6.364-1.805-10.112-1.805-4.615 0-8.671 1.238-12.168 3.714-3.496 2.475-6.272 6.07-8.328 10.783-2.056 4.713-3.084 9.769-3.084 15.167 0 5.483 1.405 9.77 4.216 12.86 2.812 3.091 6.65 4.637 11.518 4.637Zm34.405-55.049c.98 0 1.776-.461 2.392-1.384.615-.923.923-2.182.923-3.777 0-2.014-.797-3.02-2.392-3.02-1.063 0-1.902.461-2.517 1.384-.616.923-.923 2.154-.923 3.692 0 .98.217 1.742.65 2.287.434.546 1.056.818 1.867.818Zm-9.902 54.21 9.609-45.608h-4.028l-9.693 45.608h4.112ZM488.8 74c4.531 0 8.53-1.259 12-3.776 3.468-2.518 6.202-6.175 8.202-10.972s3-9.951 3-15.462c0-5.342-1.377-9.531-4.133-12.566-2.755-3.035-6.65-4.553-11.685-4.553-4.391 0-8.322 1.26-11.79 3.777-3.469 2.517-6.224 6.112-8.266 10.783-2.042 4.671-3.063 9.678-3.063 15.02 0 5.707 1.336 10.092 4.007 13.154C479.744 72.468 483.652 74 488.8 74Zm.42-3.608c-7.889 0-11.833-4.784-11.833-14.35 0-4.587.825-8.93 2.476-13.028 1.65-4.098 3.86-7.245 6.629-9.44 2.77-2.196 5.888-3.294 9.356-3.294 3.833 0 6.77 1.16 8.812 3.482s3.062 5.637 3.062 9.944c0 5.035-.818 9.658-2.454 13.867-1.636 4.21-3.832 7.399-6.587 9.567-2.756 2.168-5.91 3.252-9.462 3.252Z" fill="#405236"/>
  <path stroke="#0F5200" stroke-width="1.6" opacity=".101" stroke-linecap="square" d="M132.948 41.951v13.37"/>
  <path fill="#405236" d="m96.468 34.048-30.805 61.61H47.83L0 0h30.805l25.94 51.882 8.918-17.834z"/>
  <path fill="#CD4000" d="M56.746 22.698v-4.864l17.024-.002 2.43-4.862H64.852V8.107l13.782-.002 1.621-3.243-7.296.002V0h40.533l-11.35 22.698z"/>
  <path fill="#4A5E3F" d="m27.793 4.864 38.87 77.995-4 7.934h-11.83L7.866 4.863z"/>
</svg>
